X:1
T:The Roving Newfoundlanders
M:6/8
L:1/8
K:G
 D| G2 G G3.99999962500005/5.99999925000009 G3.99999962500005/5.99999925000009 G3.99999962500005/5.99999925000009 G|\
 F A2 z2 A| G2 F D2 ^C| D3 z2 D/2D/2| G2 G G2 G| FAA z2 B| c2 BA-G B|\
 A3 z2 A| D2 EF-E D| d d2 d2 e| d2 AA-G F| G3- G2 B| c2 B A2 D| F3/2 A/2 A z2 A|\
 G2 F D2 ^C| D3- D2||

